wifi-strength-1-lock.svg

<svg fill="currentColor" viewBox="0 0 24 24"><path d="M12 13c.8 0 1.61.13 2.38.36-.1.37-.18.75-.18 1.14v.24c-.7.6-1.2 1.5-1.2 2.46v3.04l-1 1.26C7.88 16.37 4.39 12.06.365 7 3.69 4.41 7.78 3 12 3c4.2 0 8.31 1.41 11.64 4l-2.73 3.39c-.59-.25-1.23-.39-1.91-.39-.13 0-.25.03-.38.04l2.08-2.59C18.08 5.86 15.06 5 12 5s-6.1.85-8.74 2.44l5.12 6.36c1.12-.52 2.36-.8 3.62-.8m11 4.3v3.5c0 .6-.6 1.2-1.3 1.2h-5.5c-.6 0-1.2-.6-1.2-1.3v-3.5c0-.6.6-1.2 1.2-1.2v-1.5c0-1.4 1.4-2.5 2.8-2.5s2.8 1.1 2.8 2.5V16c.6 0 1.2.6 1.2 1.3m-2.5-2.8c0-.8-.7-1.3-1.5-1.3s-1.5.5-1.5 1.3V16h3z"/></svg>

<svg  viewBox="0 0 24 24" fill="currentColor"><path  d="M12 13C12.8 13 13.61 13.13 14.38 13.36C14.28 13.73 14.2 14.11 14.2 14.5V14.74C13.5 15.34 13 16.24 13 17.2V20.24L12 21.5C7.88 16.37 4.39 12.06 .365 7C3.69 4.41 7.78 3 12 3C16.2 3 20.31 4.41 23.64 7L20.91 10.39C20.32 10.14 19.68 10 19 10C18.87 10 18.75 10.03 18.62 10.04L20.7 7.45C18.08 5.86 15.06 5 12 5S5.9 5.85 3.26 7.44L8.38 13.8C9.5 13.28 10.74 13 12 13M23 17.3V20.8C23 21.4 22.4 22 21.7 22H16.2C15.6 22 15 21.4 15 20.7V17.2C15 16.6 15.6 16 16.2 16V14.5C16.2 13.1 17.6 12 19 12S21.8 13.1 21.8 14.5V16C22.4 16 23 16.6 23 17.3M20.5 14.5C20.5 13.7 19.8 13.2 19 13.2S17.5 13.7 17.5 14.5V16H20.5V14.5Z"/></svg>
